Numix/64/actions/go-jump.svg

<?xml version="1.0" encoding="UTF-8" standalone="no"?>
<svg
   xmlns:dc="http://purl.org/dc/elements/1.1/"
   xmlns:cc="http://creativecommons.org/ns#"
   xmlns:rdf="http://www.w3.org/1999/02/22-rdf-syntax-ns#"
   xmlns:svg="http://www.w3.org/2000/svg"
   xmlns="http://www.w3.org/2000/svg"
   xmlns:sodipodi="http://sodipodi.sourceforge.net/DTD/sodipodi-0.dtd"
   xmlns:inkscape="http://www.inkscape.org/namespaces/inkscape"
   width="64"
   height="64"
   viewBox="0 0 64 64"
   id="svg2"
   version="1.1"
   inkscape:version="0.91 r13725"
   sodipodi:docname="go-jump.svg">
  <metadata
     id="metadata16">
    <rdf:RDF>
      <cc:Work
         rdf:about="">
        <dc:format>image/svg+xml</dc:format>
        <dc:type
           rdf:resource="http://purl.org/dc/dcmitype/StillImage" />
      </cc:Work>
    </rdf:RDF>
  </metadata>
  <defs
     id="defs14" />
  <sodipodi:namedview
     pagecolor="#ffffff"
     bordercolor="#666666"
     borderopacity="1"
     objecttolerance="10"
     gridtolerance="10"
     guidetolerance="10"
     inkscape:pageopacity="0"
     inkscape:pageshadow="2"
     inkscape:window-width="1366"
     inkscape:window-height="704"
     id="namedview12"
     showgrid="true"
     inkscape:zoom="9.553256"
     inkscape:cx="36.324226"
     inkscape:cy="32"
     inkscape:window-x="0"
     inkscape:window-y="27"
     inkscape:window-maximized="1"
     inkscape:current-layer="svg2">
    <inkscape:grid
       type="xygrid"
       id="grid4147" />
  </sodipodi:namedview>
  <path
     style="fill:#268bd2;fill-rule:evenodd"
     d="M 56.949219,11.972656 C 40,9 23,9 6.9960938,12.039062 2.6215908,17.512142 0,24.448119 0,32 0,49.675781 14.328125,64.003906 32.003906,64 49.675781,63.996094 64,49.671875 64,32 64,24.417377 61.356522,17.455809 56.949219,11.972656 Z"
     id="path4"
     inkscape:connector-curvature="0"
     sodipodi:nodetypes="ccsssc" />
  <g
     style="fill:#fff;fill-opacity:.902"
     id="g6">
    <path
       d="M 32.003906 0 C 22.269531 -1.1842379e-15 13.0625 4.4296885 6.9882812 12.039062 L 28.015625 12.011719 L 28.015625 37.25 L 19.890625 29.375 C 18.570312 28.042969 16.515625 27.648438 14.765625 28.375 C 13.011719 29.097656 11.953125 30.765625 12.015625 32.625 C 12.050781 33.792969 12.535156 34.941406 13.390625 35.75 L 28.765625 50.625 C 29.628906 51.476562 30.789062 52 32.015625 52 C 33.238281 52 34.398438 51.476562 35.265625 50.625 L 50.640625 35.75 C 52.4375 33.996094 52.4375 31.128906 50.640625 29.375 C 48.839844 27.621094 45.9375 27.621094 44.140625 29.375 L 36.015625 37.25 L 36.015625 12 L 56.960938 11.972656 C 50.886719 4.4062502 41.707031 0 32.003906 0 z "
       id="path8"
       style="fill:#eaf4fb;fill-opacity:1" />
  </g>
</svg>

<svg xmlns="http://www.w3.org/2000/svg" viewBox="0 0 64 64">
 <path d="m 56.949 11.973 c -16.949 -2.973 -33.949 -2.973 -49.953 0.066 -4.375 5.473 -6.996 12.409 -6.996 19.961 0 17.676 14.328 32 32 32 17.672 -0.004 31.996 -14.328 31.996 -32 0 -7.583 -2.643 -14.544 -7.05 -20.03" style="fill:#268bd2;fill-rule:evenodd"/>
 <g style="fill:#fff;fill-opacity:0.902">
  <path d="m 32 0 c -9.734 0 -18.941 4.43 -25.02 12.04 l 21.03 -0.027 l 0 25.24 l -8.125 -7.875 c -1.32 -1.332 -3.375 -1.727 -5.125 -1 c -1.754 0.723 -2.813 2.391 -2.75 4.25 c 0.035 1.168 0.52 2.316 1.375 3.125 l 15.375 14.875 c 0.863 0.852 2.023 1.375 3.25 1.375 c 1.223 0 2.383 -0.523 3.25 -1.375 l 15.375 -14.875 c 1.797 -1.754 1.797 -4.621 0 -6.375 c -1.801 -1.754 -4.703 -1.754 -6.5 0 l -8.125 7.875 l 0 -25.25 l 20.945 -0.027 c -6.074 -7.566 -15.254 -11.973 -24.957 -11.973 z" style="fill:#eaf4fb;fill-opacity:1"/>
 </g>
</svg>
